X:1
T:Parks of Dunlop, The
M:6/8
L:1/8
R:Jig
B:John Riddell of Ayr – Collection of Scots Reels, Minuets &c.
B:for the Violin (1782, p. 30)
Z:AK/Fiddler’s Companion
K:D
A|:{G}(TF>EF) D2=c|(B/=c/dc) {c}TB2d|AFD D2g|(f/g/a)f d2A|
(TF>EF) D2=c|(B/=c/dc) {c}B2g|afd afd|Adc d3:|
|:d2b afd|efg ecA|d2b afd|afd a3|
d2b afd|efg fed|1 (B>d)B A2g|(Tf>ef) d2:|2 B3Ag|(f>ef) d3||

